public/images/icons/codepen.svg

<svg width="26" height="26" viewBox="0 0 26 26" fill="none" xmlns="http://www.w3.org/2000/svg">
<path d="M12.9998 9.74996L4.40236 15.3383C3.65719 15.8227 3.2846 16.0649 3.15556 16.372C3.04279 16.6404 3.04279 16.9429 3.15556 17.2113M12.9998 9.74996L21.5973 15.3383C22.3425 15.8227 22.7151 16.0649 22.8441 16.372C22.9569 16.6404 22.9569 16.9429 22.8441 17.2113M12.9998 9.74996V2.70829M12.9998 16.25L4.40235 10.6616C3.65719 10.1772 3.2846 9.93505 3.15556 9.62793C3.04279 9.35954 3.04279 9.05705 3.15556 8.78865M12.9998 16.25L21.5973 10.6616C22.3425 10.1772 22.7151 9.93505 22.8441 9.62793C22.9569 9.35954 22.9569 9.05705 22.8441 8.78865M12.9998 16.25V23.2916M23.0445 17.3043L13.9445 23.2193C13.6026 23.4415 13.4316 23.5526 13.2474 23.5959C13.0846 23.6341 12.9151 23.6341 12.7523 23.5959C12.5681 23.5526 12.3971 23.4415 12.0552 23.2193L2.95519 17.3043C2.66702 17.117 2.52293 17.0233 2.41854 16.8984C2.32613 16.7878 2.25671 16.6599 2.21436 16.5221C2.1665 16.3665 2.1665 16.1947 2.1665 15.851V10.1489C2.1665 9.80525 2.1665 9.6334 2.21436 9.47779C2.25671 9.34004 2.32613 9.21212 2.41854 9.10154C2.52293 8.97661 2.66702 8.88296 2.95519 8.69564L12.0552 2.78064C12.3971 2.55839 12.5681 2.44727 12.7523 2.40403C12.9151 2.36581 13.0846 2.36581 13.2474 2.40403C13.4316 2.44727 13.6026 2.55839 13.9445 2.78064L23.0445 8.69564C23.3327 8.88296 23.4767 8.97661 23.5811 9.10154C23.6735 9.21212 23.743 9.34004 23.7853 9.47779C23.8332 9.6334 23.8332 9.80525 23.8332 10.1489V15.851C23.8332 16.1947 23.8332 16.3665 23.7853 16.5221C23.743 16.6599 23.6735 16.7878 23.5811 16.8984C23.4767 17.0233 23.3327 17.117 23.0445 17.3043Z" stroke="#FBFBFB" stroke-width="2.16667" stroke-linecap="round" stroke-linejoin="round"/>
</svg>

<svg xmlns="http://www.w3.org/2000/svg" width="26" height="26" fill="none"><path stroke="#FBFBFB" stroke-linecap="round" stroke-linejoin="round" stroke-width="2.167" d="m13 9.75-8.598 5.588c-.745.485-1.117.727-1.246 1.034-.113.268-.113.57 0 .84M13 9.75l8.597 5.588c.745.485 1.118.727 1.247 1.034.113.268.113.57 0 .84M13 9.75V2.708m0 13.542-8.598-5.588c-.745-.485-1.117-.727-1.246-1.034a1.083 1.083 0 0 1 0-.84M13 16.25l8.597-5.588c.745-.485 1.118-.727 1.247-1.034.113-.268.113-.57 0-.84M13 16.25v7.042m10.044-5.988-9.1 5.915c-.341.223-.512.334-.697.377a1.084 1.084 0 0 1-.495 0c-.184-.043-.355-.154-.697-.377l-9.1-5.915c-.288-.187-.432-.28-.536-.406a1.083 1.083 0 0 1-.205-.376c-.047-.155-.047-.327-.047-.671v-5.702c0-.344 0-.516.047-.671.043-.138.112-.266.205-.376.104-.125.248-.219.536-.406l9.1-5.915c.342-.223.513-.334.697-.377.163-.038.333-.038.495 0 .185.043.356.154.697.377l9.1 5.915c.289.187.433.28.537.406.093.11.162.238.204.376.048.155.048.327.048.67v5.703c0 .344 0 .515-.048.671a1.082 1.082 0 0 1-.204.376c-.104.125-.248.219-.537.406Z"/></svg>
